chrome/icons/themes.svg

<svg height="16" viewBox="0 1 1024 1027" width="16" xmlns="http://www.w3.org/2000/svg" xmlns:xlink="http://www.w3.org/1999/xlink">
  <path d="M324,606C309,606 295.333,609 283,615C270.667,621 258.583,627.667 246.75,635C234.917,642.333 222.667,649 210,655C197.333,661 183.333,664 168,664C147.333,664 127.667,659 109,649C90.3333,639 73.5,627.5 58.5,614.5C38.1667,596.833 23.3333,576.583 14,553.75C4.66667,530.917 0,506.167 0,479.5C0,452.833 3.66667,426.25 11,399.75C18.3333,373.25 27.3333,348 38,324C49.6667,298 63.1667,272.833 78.5,248.5C93.8333,224.167 110.5,201 128.5,179C144.833,159 162.167,140.083 180.5,122.25C198.833,104.417 219,88.5001 241,74.5C278.667,50.5001 318.75,32.1667 361.25,19.5C403.75,6.83337 447.333,0.5 492,0.5C534.333,0.5 576,6 617,17C658,28 697.167,43.5 734.5,63.5C780.167,88.5 820.917,117.667 856.75,151C892.583,184.333 922.917,221.333 947.75,262C972.583,302.667 991.5,346.583 1004.5,393.75C1017.5,440.917 1024,490.667 1024,543C1024,575 1021.58,606.75 1016.75,638.25C1011.92,669.75 1004.83,700.833 995.5,731.5C988.167,755.167 978.917,778.917 967.75,802.75C956.583,826.583 943.5,849.417 928.5,871.25C913.5,893.083 896.833,913.583 878.5,932.75C860.167,951.917 840.25,968.5 818.75,982.5C797.25,996.5 774.25,1007.5 749.75,1015.5C725.25,1023.5 699.5,1027.5 672.5,1027.5C657.5,1027.5 642.75,1026.17 628.25,1023.5C613.75,1020.83 599.5,1017 585.5,1012C556.167,1001.67 531,988.833 510,973.5C489,958.167 471.583,940.333 457.75,920C443.917,899.667 433.417,876.833 426.25,851.5C419.083,826.167 414.5,798.333 412.5,768C411.167,749.667 410.25,731.333 409.75,713C409.25,694.667 406.833,676.5 402.5,658.5C401.167,653.5 399.667,648.167 398,642.5C396.333,636.833 393.667,632.167 390,628.5C386.333,624.5 381.833,621 376.5,618C371.167,615 365.5,612.667 359.5,611C353.5,609.333 347.417,608.083 341.25,607.25C335.083,606.417 329.333,606 324,606ZM672.5,963.5C697.5,963.5 721.333,958.75 744,949.25C766.667,939.75 787.667,927.167 807,911.5C833.333,890.167 856.167,865 875.5,836C894.833,807 910.833,776.083 923.5,743.25C936.167,710.417 945.5,676.583 951.5,641.75C957.5,606.917 960.5,573 960.5,540C960.5,493.667 954.75,449.833 943.25,408.5C931.75,367.167 915,328.75 893,293.25C871,257.75 844.167,225.5 812.5,196.5C780.833,167.5 744.833,142 704.5,120C672.167,102.333 638,88.5 602,78.5C566,68.5 529.333,63.5 492,63.5C446,63.5 402.917,70.8334 362.75,85.5C322.583,100.167 285.833,120.417 252.5,146.25C219.167,172.083 189.333,202.417 163,237.25C136.667,272.083 114.5,309.667 96.5,350C87.1667,370.333 79.4167,391.333 73.25,413C67.0833,434.667 64,456.833 64,479.5C64,496.833 66.6667,512.583 72,526.75C77.3333,540.917 86.5,553.833 99.5,565.5C103.167,568.833 107.75,572.5 113.25,576.5C118.75,580.5 124.5,584.25 130.5,587.75C136.5,591.25 142.5,594.25 148.5,596.75C154.5,599.25 160,600.5 165,600.5C174.333,600.5 184.333,597.417 195,591.25C205.667,585.083 217.417,578.417 230.25,571.25C243.083,564.083 257.167,557.417 272.5,551.25C287.833,545.083 305,542 324,542C334.333,542 344.667,542.917 355,544.75C365.333,546.583 375.333,549 385,552C406.667,559 423.333,569 435,582C446.667,595 455.25,609.917 460.75,626.75C466.25,643.583 469.667,661.917 471,681.75C472.333,701.583 473.583,721.833 474.75,742.5C475.917,763.167 478.083,783.833 481.25,804.5C484.417,825.167 490.5,844.75 499.5,863.25C508.5,881.75 521.5,898.667 538.5,914C555.5,929.333 578.333,942 607,952C628.333,959.667 650.167,963.5 672.5,963.5ZM448,240C448,226.667 452.667,215.333 462,206C471.333,196.667 482.667,192 496,192C509.333,192 520.667,196.667 530,206C539.333,215.333 544,226.667 544,240C544,253.333 539.333,264.667 530,274C520.667,283.333 509.333,288 496,288C482.667,288 471.333,283.333 462,274C452.667,264.667 448,253.333 448,240ZM640,304C640,290.667 644.667,279.333 654,270C663.333,260.667 674.667,256 688,256C701.333,256 712.667,260.667 722,270C731.333,279.333 736,290.667 736,304C736,317.333 731.333,328.667 722,338C712.667,347.333 701.333,352 688,352C674.667,352 663.333,347.333 654,338C644.667,328.667 640,317.333 640,304ZM752,448C752,434.667 756.667,423.333 766,414C775.333,404.667 786.667,400 800,400C813.333,400 824.667,404.667 834,414C843.333,423.333 848,434.667 848,448C848,461.333 843.333,472.667 834,482C824.667,491.333 813.333,496 800,496C786.667,496 775.333,491.333 766,482C756.667,472.667 752,461.333 752,448ZM752,640C752,626.667 756.667,615.333 766,606C775.333,596.667 786.667,592 800,592C813.333,592 824.667,596.667 834,606C843.333,615.333 848,626.667 848,640C848,653.333 843.333,664.667 834,674C824.667,683.333 813.333,688 800,688C786.667,688 775.333,683.333 766,674C756.667,664.667 752,653.333 752,640ZM624,768C624,754.667 628.667,743.333 638,734C647.333,724.667 658.667,720 672,720C685.333,720 696.667,724.667 706,734C715.333,743.333 720,754.667 720,768C720,781.333 715.333,792.667 706,802C696.667,811.333 685.333,816 672,816C658.667,816 647.333,811.333 638,802C628.667,792.667 624,781.333 624,768Z" fill="context-fill" fill-opacity="context-fill-opacity">
  </path>
</svg>

<svg xmlns="http://www.w3.org/2000/svg" width="16" height="16" viewBox="0 1 1024 1027"><path fill="context-fill" fill-opacity="context-fill-opacity" d="M324 606q-22.5 0-41 9a406 406 0 0 0-36.25 20A372 372 0 0 1 210 655q-19 9-42 9-31 0-59-15t-50.5-34.5Q28 588 14 553.75T0 479.5t11-79.75T38 324q17.5-39 40.5-75.5t50-69.5a673 673 0 0 1 52-56.75Q208 95.5 241 74.5q56.5-36 120.25-55T492 .5Q555.5.5 617 17t117.5 46.5Q803 101 856.75 151t91 111 56.75 131.75T1024 543c0 32-2.42 63.75-7.25 95.25s-11.92 62.583-21.25 93.25q-11 35.5-27.75 71.25a482 482 0 0 1-39.25 68.5 491.5 491.5 0 0 1-50 61.5Q851 961.5 818.75 982.5t-69 33-77.25 12c-15 0-29.75-1.33-44.25-4a275 275 0 0 1-42.75-11.5c-29.333-10.33-54.5-23.167-75.5-38.5q-31.5-23-52.25-53.5t-31.5-68.5T412.5 768a1215 1215 0 0 1-2.75-55q-.75-27.5-7.25-54.5-2-7.5-4.5-16t-8-14q-5.5-6-13.5-10.5t-17-7a136 136 0 0 0-18.25-3.75Q332 606 324 606m348.5 357.5q37.5 0 71.5-14.25t63-37.75q39.5-32 68.5-75.5t48-92.75 28-101.5 9-101.75q0-69.5-17.25-131.5T893 293.25t-80.5-96.75-108-76.5Q656 93.5 602 78.5t-110-15q-69 0-129.25 22T252.5 146.25t-89.5 91T96.5 350a438.6 438.6 0 0 0-23.25 63Q64 445.5 64 479.5q0 26 8 47.25t27.5 38.75q5.5 5 13.75 11t17.25 11.25 18 9 16.5 3.75q14 0 30-9.25t35.25-20 42.25-20T324 542q15.5 0 31 2.75t30 7.25q32.5 10.5 50 30t25.75 44.75 10.25 55a5688 5688 0 0 1 3.75 60.75 652 652 0 0 0 6.5 62q4.75 31 18.25 58.75t39 50.75 68.5 38q32 11.5 65.5 11.5M448 240q0-20 14-34t34-14 34 14 14 34-14 34-34 14-34-14-14-34m192 64q0-20 14-34t34-14 34 14 14 34-14 34-34 14-34-14-14-34m112 144q0-20 14-34t34-14 34 14 14 34-14 34-34 14-34-14-14-34m0 192q0-20 14-34t34-14 34 14 14 34-14 34-34 14-34-14-14-34M624 768q0-20 14-34t34-14 34 14 14 34-14 34-34 14-34-14-14-34"/></svg>
